dataset/ryujinx/icon.svg

<?xml version="1.0" encoding="UTF-8" standalone="no"?>
<svg
   width="128"
   height="128"
   version="1"
   id="svg44"
   xmlns:xlink="http://www.w3.org/1999/xlink"
   xmlns="http://www.w3.org/2000/svg"
   xmlns:svg="http://www.w3.org/2000/svg">
  <defs
     id="defs48">
    <linearGradient
       id="linearGradient27">
      <stop
         style="stop-color:#32addd;stop-opacity:1;"
         offset="0.38728514"
         id="stop27" />
      <stop
         style="stop-color:#71c56d;stop-opacity:1;"
         offset="0.5"
         id="stop29" />
      <stop
         style="stop-color:#fdef68;stop-opacity:1;"
         offset="0.54648817"
         id="stop30" />
      <stop
         style="stop-color:#fe8f63;stop-opacity:1;"
         offset="0.60000002"
         id="stop31" />
      <stop
         style="stop-color:#ff635e;stop-opacity:1;"
         offset="0.94999999"
         id="stop28" />
    </linearGradient>
    <linearGradient
       id="linearGradient21">
      <stop
         style="stop-color:#fdef68;stop-opacity:1;"
         offset="0.33000001"
         id="stop22" />
      <stop
         style="stop-color:#fe8f63;stop-opacity:1;"
         offset="0.33000001"
         id="stop24" />
      <stop
         style="stop-color:#fe8f63;stop-opacity:1;"
         offset="0.67000002"
         id="stop25" />
      <stop
         style="stop-color:#ff635e;stop-opacity:1;"
         offset="0.67000002"
         id="stop26" />
    </linearGradient>
    <linearGradient
       id="linearGradient13">
      <stop
         style="stop-color:#fdef68;stop-opacity:1;"
         offset="0.2"
         id="stop14" />
      <stop
         style="stop-color:#fe8f63;stop-opacity:1;"
         offset="0.2"
         id="stop16" />
      <stop
         style="stop-color:#fe8f63;stop-opacity:1;"
         offset="0.40000001"
         id="stop17" />
      <stop
         style="stop-color:#ff635e;stop-opacity:1;"
         offset="0.40000001"
         id="stop18" />
      <stop
         style="stop-color:#ff635e;stop-opacity:1;"
         offset="0.60000002"
         id="stop19" />
      <stop
         style="stop-color:#ae9675;stop-opacity:1;"
         offset="0.60000002"
         id="stop20" />
      <stop
         style="stop-color:#ae9675;stop-opacity:1;"
         offset="0.80000001"
         id="stop21" />
      <stop
         style="stop-color:#686868;stop-opacity:1;"
         offset="0.80000001"
         id="stop15" />
    </linearGradient>
    <linearGradient
       id="linearGradient4">
      <stop
         style="stop-color:#32addd;stop-opacity:1;"
         offset="0.2"
         id="stop5" />
      <stop
         style="stop-color:#71c56d;stop-opacity:1;"
         offset="0.2"
         id="stop8" />
      <stop
         style="stop-color:#71c56d;stop-opacity:1;"
         offset="0.40000001"
         id="stop11" />
      <stop
         style="stop-color:#fdef68;stop-opacity:1;"
         offset="0.40000001"
         id="stop9" />
      <stop
         style="stop-color:#fdef68;stop-opacity:1;"
         offset="0.60000002"
         id="stop12" />
      <stop
         style="stop-color:#fe8f63;stop-opacity:1;"
         offset="0.60000002"
         id="stop10" />
      <stop
         style="stop-color:#fe8f63;stop-opacity:1;"
         offset="0.80000001"
         id="stop13" />
      <stop
         style="stop-color:#ff635e;stop-opacity:1;"
         offset="0.80000001"
         id="stop7" />
    </linearGradient>
    <linearGradient
       xlink:href="#linearGradient1571"
       id="linearGradient1573"
       x1="12"
       y1="66"
       x2="116"
       y2="66"
       gradientUnits="userSpaceOnUse" />
    <linearGradient
       id="linearGradient1571">
      <stop
         style="stop-color:#114e65;stop-opacity:1;"
         offset="0"
         id="stop1567" />
      <stop
         style="stop-color:#89d0eb;stop-opacity:1;"
         offset="0.03567462"
         id="stop1575" />
      <stop
         style="stop-color:#186f90;stop-opacity:1;"
         offset="0.07302466"
         id="stop1577" />
      <stop
         style="stop-color:#186f90;stop-opacity:1;"
         offset="0.92681795"
         id="stop1579" />
      <stop
         style="stop-color:#89d0eb;stop-opacity:1;"
         offset="0.96064132"
         id="stop1581" />
      <stop
         style="stop-color:#114e64;stop-opacity:1;"
         offset="1"
         id="stop1569" />
    </linearGradient>
    <linearGradient
       xlink:href="#linearGradient4"
       id="linearGradient7"
       x1="23.510252"
       y1="80.038116"
       x2="62.211819"
       y2="35.517052"
       gradientUnits="userSpaceOnUse" />
    <linearGradient
       xlink:href="#linearGradient13"
       id="linearGradient15"
       x1="65.024284"
       y1="91.727913"
       x2="106.17429"
       y2="47.25156"
       gradientUnits="userSpaceOnUse" />
    <linearGradient
       xlink:href="#linearGradient21"
       id="linearGradient23"
       x1="52.20554"
       y1="73.976051"
       x2="75.110573"
       y2="49.922386"
       gradientUnits="userSpaceOnUse" />
    <linearGradient
       xlink:href="#linearGradient27"
       id="linearGradient28"
       x1="35.846863"
       y1="112"
       x2="86.083038"
       y2="11.999996"
       gradientUnits="userSpaceOnUse" />
  </defs>
  <rect
     style="display:inline;fill:url(#linearGradient1573);fill-opacity:1;stroke:none;stroke-width:0.25;stroke-linecap:butt;stroke-linejoin:miter;stroke-miterlimit:4;stroke-dasharray:none;stroke-dashoffset:0;stroke-opacity:1;marker:none;marker-start:none;marker-mid:none;marker-end:none;paint-order:normal;enable-background:new;opacity:1"
     id="rect1711-5"
     width="104"
     height="100"
     x="12.000004"
     y="15.999996"
     rx="8"
     ry="8" />
  <rect
     style="display:inline;fill:url(#linearGradient28);fill-opacity:1;stroke:none;stroke-width:0.25;stroke-linecap:butt;stroke-linejoin:miter;stroke-miterlimit:4;stroke-dasharray:none;stroke-dashoffset:0;stroke-opacity:1;marker:none;marker-start:none;marker-mid:none;marker-end:none;paint-order:normal;enable-background:new"
     id="rect1711"
     width="104"
     height="100"
     x="12.000004"
     y="11.999996"
     rx="8"
     ry="8" />
  <rect
     style="display:inline;fill:#232321;fill-opacity:1;stroke:none;stroke-width:0.25;stroke-linecap:butt;stroke-linejoin:miter;stroke-miterlimit:4;stroke-dasharray:none;stroke-dashoffset:0;stroke-opacity:1;marker:none;marker-start:none;marker-mid:none;marker-end:none;paint-order:normal;enable-background:new"
     id="rect1"
     width="96"
     height="92"
     x="16.000004"
     y="15.999996"
     rx="6"
     ry="6" />
  <path
     id="path3"
     style="fill:url(#linearGradient23)"
     d="M 63.609375 50.626953 C 62.798965 50.626953 62.638427 50.659071 62.585938 50.837891 C 62.551738 50.954441 62.21791 52.385838 61.84375 54.017578 C 61.4696 55.649318 61.136646 57.078019 61.103516 57.193359 C 61.049016 57.383199 60.777591 57.406137 58.244141 57.435547 L 55.447266 57.46875 L 55.166016 58.376953 C 55.012156 58.876463 54.886026 59.352297 54.884766 59.435547 C 54.88475 59.436459 54.884703 59.440504 54.884766 59.441406 C 54.884907 59.442299 54.886497 59.446383 54.886719 59.447266 L 54.886719 59.449219 C 54.933993 59.555328 55.603279 59.587891 57.667969 59.587891 C 60.268949 59.587891 60.453125 59.603131 60.453125 59.806641 C 60.453125 59.926491 60.207913 61.068163 59.908203 62.345703 C 59.608503 63.623233 59.363281 64.697872 59.363281 64.732422 C 59.363281 64.766922 58.192792 64.794922 56.763672 64.794922 L 54.166016 64.794922 L 53.910156 65.671875 C 53.769826 66.154735 53.629183 66.645169 53.595703 66.761719 C 53.539103 66.958869 53.716714 66.974609 56.146484 66.974609 C 58.07719 66.974609 58.708251 67.009369 58.753906 67.115234 L 58.755859 67.117188 C 58.756077 67.118068 58.755717 67.122157 58.755859 67.123047 L 58.755859 67.125 C 58.755259 67.2082 58.455554 68.556754 58.089844 70.121094 C 57.724134 71.685424 57.425781 73.035081 57.425781 73.119141 C 57.425781 73.229371 57.693232 73.271484 58.388672 73.271484 L 59.353516 73.271484 L 59.474609 72.816406 C 59.612409 72.301346 60.816406 67.107344 60.816406 67.027344 C 60.816406 66.998644 61.879004 66.974609 63.177734 66.974609 C 64.476464 66.974609 65.539062 67.021385 65.539062 67.078125 C 65.539062 67.134925 65.340969 68.019432 65.099609 69.044922 C 64.858239 70.070412 64.539838 71.427837 64.392578 72.060547 L 64.125 73.210938 L 65.09375 73.246094 C 65.62604 73.265594 66.100557 73.238047 66.148438 73.185547 C 66.196337 73.132747 66.429339 72.217964 66.667969 71.152344 C 66.906599 70.086714 67.219418 68.70981 67.361328 68.09375 L 67.619141 66.974609 L 70.064453 66.974609 L 72.511719 66.974609 L 72.839844 65.96875 C 73.020074 65.41532 73.167969 64.924886 73.167969 64.878906 C 73.167969 64.832906 72.050877 64.794922 70.685547 64.794922 C 68.840243 64.794922 68.239315 64.760024 68.203125 64.652344 C 68.202468 64.649709 68.201185 64.645301 68.201172 64.642578 C 68.200772 64.559278 68.455898 63.390219 68.767578 62.042969 L 69.333984 59.59375 L 71.564453 59.560547 L 73.794922 59.527344 L 74.087891 58.632812 C 74.248091 58.141233 74.378906 57.665409 74.378906 57.574219 C 74.378906 57.439869 73.954072 57.408203 72.138672 57.408203 C 70.344832 57.408203 69.898438 57.376264 69.898438 57.246094 C 69.898438 57.156694 70.22539 55.684893 70.625 53.976562 C 71.02461 52.268233 71.351562 50.813931 71.351562 50.744141 C 71.351562 50.663141 70.992575 50.629874 70.359375 50.652344 L 69.367188 50.6875 L 68.59375 54.017578 C 68.16816 55.849048 67.805279 57.362689 67.787109 57.380859 C 67.768909 57.399059 66.695554 57.398919 65.402344 57.380859 L 63.050781 57.347656 L 63.806641 54.078125 C 64.222591 52.279875 64.564646 50.766757 64.566406 50.716797 L 64.566406 50.714844 L 64.566406 50.712891 L 64.564453 50.712891 L 64.564453 50.710938 L 64.5625 50.708984 C 64.514855 50.663375 64.104684 50.626953 63.609375 50.626953 z M 62.535156 59.587891 L 64.884766 59.587891 C 66.176986 59.587891 67.235288 59.627834 67.236328 59.677734 C 67.237328 59.727634 66.980546 60.89927 66.666016 62.28125 L 66.09375 64.794922 L 63.710938 64.794922 L 61.328125 64.794922 L 61.603516 63.613281 C 61.755156 62.963921 62.026871 61.792336 62.207031 61.009766 L 62.535156 59.587891 z " />
  <path
     style="fill:url(#linearGradient7)"
     d="M 50.765068,56.984279 V 25.923733 h -4.83584 c -5.13732,0 -5.69069,0.0474 -7.22272,0.61855 -3.16144,1.17862 -6.27894,4.13462 -7.52797,7.138 -0.80789,1.94261 -0.76757,0.62935 -0.73035,23.788376 l 0.0337,20.94921 0.28469,0.84766 c 1.09211,3.25169 3.86402,6.47968 6.84751,7.97416 1.56401,0.78344 1.61135,0.78835 7.67151,0.79717 l 5.4795,0.008 z"
     id="path2" />
  <path
     style="fill:url(#linearGradient15)"
     d="m 89.275598,97.774739 c 3.38433,-1.27835 6.5263,-4.4772 7.8986,-8.04156 l 0.3936,-1.02234 V 67.216699 45.722562 l -0.28259,-0.908203 c -1.1887,-3.820257 -4.54611,-7.150856 -8.55725,-8.488926 -0.82673,-0.27578 -0.97649,-0.28378 -6.06665,-0.3238 l -5.21898,-0.041 -0.0659,30.976686 c -0.0363,17.03718 -0.0394,31.02053 -0.007,31.07411 0.0324,0.0536 2.57405,0.0791 5.6482,0.0567 5.31749,-0.0388 5.62188,-0.053 6.25809,-0.29334 z"
     id="path1-8" />
  <path
     style="fill:url(#linearGradient7)"
     d="M 50.765068,56.984279 V 25.923733 h -4.83584 c -5.13732,0 -5.69069,0.0474 -7.22272,0.61855 -3.16144,1.17862 -6.27894,4.13462 -7.52797,7.138 -0.80789,1.94261 -0.76757,0.62935 -0.73035,23.788376 l 0.0337,20.94921 0.28469,0.84766 c 1.09211,3.25169 3.86402,6.47968 6.84751,7.97416 1.56401,0.78344 1.61135,0.78835 7.67151,0.79717 l 5.4795,0.008 z"
     id="path13" />
</svg>

<svg xmlns="http://www.w3.org/2000/svg" xmlns:xlink="http://www.w3.org/1999/xlink" width="128" height="128"><defs><linearGradient id="e"><stop offset=".387" style="stop-color:#32addd;stop-opacity:1"/><stop offset=".5" style="stop-color:#71c56d;stop-opacity:1"/><stop offset=".546" style="stop-color:#fdef68;stop-opacity:1"/><stop offset=".6" style="stop-color:#fe8f63;stop-opacity:1"/><stop offset=".95" style="stop-color:#ff635e;stop-opacity:1"/></linearGradient><linearGradient id="d"><stop offset=".33" style="stop-color:#fdef68;stop-opacity:1"/><stop offset=".33" style="stop-color:#fe8f63;stop-opacity:1"/><stop offset=".67" style="stop-color:#fe8f63;stop-opacity:1"/><stop offset=".67" style="stop-color:#ff635e;stop-opacity:1"/></linearGradient><linearGradient id="c"><stop offset=".2" style="stop-color:#fdef68;stop-opacity:1"/><stop offset=".2" style="stop-color:#fe8f63;stop-opacity:1"/><stop offset=".4" style="stop-color:#fe8f63;stop-opacity:1"/><stop offset=".4" style="stop-color:#ff635e;stop-opacity:1"/><stop offset=".6" style="stop-color:#ff635e;stop-opacity:1"/><stop offset=".6" style="stop-color:#ae9675;stop-opacity:1"/><stop offset=".8" style="stop-color:#ae9675;stop-opacity:1"/><stop offset=".8" style="stop-color:#686868;stop-opacity:1"/></linearGradient><linearGradient id="b"><stop offset=".2" style="stop-color:#32addd;stop-opacity:1"/><stop offset=".2" style="stop-color:#71c56d;stop-opacity:1"/><stop offset=".4" style="stop-color:#71c56d;stop-opacity:1"/><stop offset=".4" style="stop-color:#fdef68;stop-opacity:1"/><stop offset=".6" style="stop-color:#fdef68;stop-opacity:1"/><stop offset=".6" style="stop-color:#fe8f63;stop-opacity:1"/><stop offset=".8" style="stop-color:#fe8f63;stop-opacity:1"/><stop offset=".8" style="stop-color:#ff635e;stop-opacity:1"/></linearGradient><linearGradient xlink:href="#a" id="f" x1="12" x2="116" y1="66" y2="66" gradientUnits="userSpaceOnUse"/><linearGradient id="a"><stop offset="0" style="stop-color:#114e65;stop-opacity:1"/><stop offset=".036" style="stop-color:#89d0eb;stop-opacity:1"/><stop offset=".073" style="stop-color:#186f90;stop-opacity:1"/><stop offset=".927" style="stop-color:#186f90;stop-opacity:1"/><stop offset=".961" style="stop-color:#89d0eb;stop-opacity:1"/><stop offset="1" style="stop-color:#114e64;stop-opacity:1"/></linearGradient><linearGradient xlink:href="#b" id="i" x1="23.51" x2="62.212" y1="80.038" y2="35.517" gradientUnits="userSpaceOnUse"/><linearGradient xlink:href="#c" id="j" x1="65.024" x2="106.174" y1="91.728" y2="47.252" gradientUnits="userSpaceOnUse"/><linearGradient xlink:href="#d" id="h" x1="52.206" x2="75.111" y1="73.976" y2="49.922" gradientUnits="userSpaceOnUse"/><linearGradient xlink:href="#e" id="g" x1="35.847" x2="86.083" y1="112" y2="12" gradientUnits="userSpaceOnUse"/></defs><rect width="104" height="100" x="12" y="16" rx="8" ry="8" style="display:inline;fill:url(#f);fill-opacity:1;stroke:none;stroke-width:.25;stroke-linecap:butt;stroke-linejoin:miter;stroke-miterlimit:4;stroke-dasharray:none;stroke-dashoffset:0;stroke-opacity:1;marker:none;marker-start:none;marker-mid:none;marker-end:none;paint-order:normal;opacity:1"/><rect width="104" height="100" x="12" y="12" rx="8" ry="8" style="display:inline;fill:url(#g);fill-opacity:1;stroke:none;stroke-width:.25;stroke-linecap:butt;stroke-linejoin:miter;stroke-miterlimit:4;stroke-dasharray:none;stroke-dashoffset:0;stroke-opacity:1;marker:none;marker-start:none;marker-mid:none;marker-end:none;paint-order:normal"/><rect width="96" height="92" x="16" y="16" rx="6" ry="6" style="display:inline;fill:#232321;fill-opacity:1;stroke:none;stroke-width:.25;stroke-linecap:butt;stroke-linejoin:miter;stroke-miterlimit:4;stroke-dasharray:none;stroke-dashoffset:0;stroke-opacity:1;marker:none;marker-start:none;marker-mid:none;marker-end:none;paint-order:normal"/><path d="M63.61 50.627c-.811 0-.972.032-1.024.21-.034.117-.368 1.549-.742 3.18s-.707 3.061-.74 3.176c-.055.19-.326.213-2.86.243l-2.797.033-.281.908c-.154.5-.28.975-.281 1.059v.005l.002.006v.002c.047.106.716.139 2.781.139 2.6 0 2.785.015 2.785.219 0 .12-.245 1.261-.545 2.539-.3 1.277-.545 2.352-.545 2.386s-1.17.063-2.6.063h-2.597l-.256.877-.314 1.09c-.057.197.12.213 2.55.213 1.931 0 2.562.034 2.608.14l.002.002v.008c0 .083-.3 1.432-.666 2.996s-.664 2.914-.664 2.998c0 .11.267.152.963.152h.965l.12-.455c.138-.515 1.342-5.709 1.342-5.789 0-.028 1.063-.052 2.362-.052 1.298 0 2.361.046 2.361.103s-.198.941-.44 1.967c-.24 1.025-.56 2.383-.706 3.016l-.268 1.15.969.035c.532.02 1.007-.008 1.054-.06.048-.053.281-.968.52-2.034s.551-2.442.693-3.058l.258-1.12h4.893l.328-1.005c.18-.554.328-1.044.328-1.09s-1.117-.084-2.482-.084c-1.846 0-2.447-.035-2.483-.143l-.002-.01c0-.083.255-1.252.567-2.599l.566-2.45 2.23-.032 2.23-.034.294-.894c.16-.492.29-.968.29-1.059 0-.134-.424-.166-2.24-.166-1.793 0-2.24-.032-2.24-.162 0-.09.327-1.561.727-3.27.4-1.708.727-3.162.727-3.232 0-.08-.36-.114-.993-.092l-.992.035-.773 3.33c-.426 1.832-.789 3.346-.807 3.364s-1.091.018-2.385 0l-2.351-.033.756-3.27c.416-1.798.758-3.311.76-3.361v-.004h-.003v-.002l-.001-.002c-.048-.046-.458-.082-.954-.082m-1.075 8.96h2.35c1.292 0 2.35.04 2.351.09s-.255 1.222-.57 2.604l-.572 2.514h-4.766l.276-1.182c.151-.65.423-1.82.603-2.603z" style="fill:url(#h)"/><path d="M50.765 56.984v-31.06H45.93c-5.137 0-5.69.047-7.222.618-3.162 1.179-6.28 4.135-7.528 7.138-.808 1.943-.768.63-.73 23.789l.033 20.949.285.848c1.092 3.251 3.864 6.48 6.847 7.974 1.564.783 1.611.788 7.672.797l5.48.008z" style="fill:url(#i)"/><path d="M89.276 97.775c3.384-1.279 6.526-4.477 7.898-8.042l.394-1.022V45.723l-.283-.909c-1.188-3.82-4.546-7.15-8.557-8.489-.827-.275-.977-.283-6.067-.323l-5.219-.041-.066 30.976c-.036 17.037-.039 31.02-.007 31.074.033.054 2.574.08 5.649.057 5.317-.039 5.622-.053 6.258-.293z" style="fill:url(#j)"/><path d="M50.765 56.984v-31.06H45.93c-5.137 0-5.69.047-7.222.618-3.162 1.179-6.28 4.135-7.528 7.138-.808 1.943-.768.63-.73 23.789l.033 20.949.285.848c1.092 3.251 3.864 6.48 6.847 7.974 1.564.783 1.611.788 7.672.797l5.48.008z" style="fill:url(#i)"/></svg>
